X:325275440451456
T:12-7-12-10-6-4-5-2-12-7-10-2-9-6-11-10
%%setfont-1 Courier-Bold 8
T:$1K.516f::54:157:10:156:80:55:159:30:35:71:19:9:51:136:173:8::$0
T:$1Perm. No.: 325275440451456$0
M:3/8
L:1/8
Q:1/8=111
%%staves [1 2]
V:1 clef=treble
V:2 clef=bass
K:C
%1
[V:1]|: [cE][cE][cE] |\
[V:2]|: C,C,C,   |\
%2
[V:1] e/d/e/g/c'/g/ |\
[V:2] C,2z |\
%3
[V:1] B/A/B/c/d/B/ |\
[V:2] G,2z |\
%4
[V:1] c/G/e/c/g |\
[V:2] [G,2E,2]z |\
%5
[V:1] d!turn!A^f |\
[V:2] C,2z |\
%6
[V:1] gbd |\
[V:2] [D,2B,,2]z |\
%7
[V:1] e/g/d/c/B/A/ \
[V:2] C,D,D,, \
%8a
[V:1]|1 [g2d2B2G2]z :|2
[V:2]|1 G,,G,/=F,/E,/D,/ :|2
%8b
[V:1] [g2d2B2G2]z |:\
[V:2] G,,B,/G,/^F,/E,/ |:\
%9
[V:1] Ad^f |\
[V:2] [^F,2D,2][A,C,] |\
%10
[V:1] g/b/d'/b/g |\
[V:2] [D,2B,,2][D,B,,] |\
%11
[V:1] e/c/eg |\
[V:2] [G,2C,2][E,C,] |\
%12
[V:1] [ec][dB]z |\
[V:2] G,2G,, |\
%13
[V:1] c/G/e/c/g/e/ |\
[V:2] [E,2C,2]z |\
%14
[V:1] c'/b/c'/g/e/c/ |\
[V:2] [E,2C,2]z |\
%15
[V:1] f/a/ A B/d/ |\
[V:2] F,2G, |\
%16
[V:1] c2z :|]
[V:2] C,G,,C,, :|]
